X:1
T:Title
%%score { ( 1 3 ) | ( 2 4 ) }
L:1/8
M:4/4
K:Ab
V:1 treble nm="Grand Piano"
V:3 treble 
V:2 bass 
V:4 bass 
V:1
 z4 z2[Q:1/4=100] [CE]>[DF] | [CE]2 [CA]2 [EA]2 B2 | c2 c2 c2 d>c | B2 B2 B2 c2 | %4
 [CA]2 [DF]2 [CE]4 | F>=E F>[_EG] [FA]2 [DF]2 | [CE]>[_C=D] [=CE]>[CA] [Ec]>[CA] c>d | %7
 e>e e>A c2 B2 |[M:3/4] [CA]6 |[M:1/4] A>A |[M:4/4] B>B B>c d2 G2 | %11
 A2- [DA-]2 [CA]2 [A,EA]>[A,EA] | B>B B>c d2 [Ge]2 | e6 z2 | e2 d2 cABc | %15
 [Fd]2 [Fc]2 [FB][FA][EG]F | E>E e>e c2 B2 |[M:3/4] [CA]6 |] %18
V:2
 z4 z2 [A,,A,]>[A,,A,] | [A,,A,]2 [A,,A,]2 [C,A,]2 [E,G,E]2 | [A,E]2 [A,E]2 [A,E]2 [A,F]>[A,E] | %3
 [E,G,D]2 [E,G,D]2 [E,G,D]2 [E,G,D]2 | [A,,A,]2 [A,,A,]2 [A,,A,]4 | %5
 [D,A,D]>[D,G,D] [D,A,D]>[D,A,] [D,D]2 [D,A,]2 | %6
 [A,,A,]>[A,,A,] [A,,A,]>[A,,A,] [A,,A,]>[A,,A,] [A,E]>[A,B,E] | %7
 [A,CE]>[A,CE] [A,CE]>[A,CE] [E,A,E]2 [E,G,D]2 |[M:3/4] [A,,A,]6 |[M:1/4] [A,C]>[A,C] | %10
[M:4/4] [E,G,E]>[E,G,E] [E,G,E]>[E,A,E] [E,B,E]2 [E,B,D]2 | z2 F,2 E,2 C,>C, | %12
 [E,G,E]>[E,G,E] [E,G,E]>[E,A,E] [E,B,E]2 [E,D]2 | [CA]2 D2 C2 [A,E]>[A,B,E] | %14
 [A,CE]2 [A,F]2[K:bass] [A,E][A,C][A,D][A,E] | [D,A,]2 [D,A,]2 [D,D][D,D][D,A,][D,A,D] | %16
 [E,A,C]>[E,A,C] [E,CE]>[E,CE] [E,A,E]2 [E,G,D]2 |[M:3/4] [A,,A,]6 |] %18
V:3
 x8 | x8 | x8 | x8 | x8 | x8 | x8 | x8 |[M:3/4] x6 |[M:1/4] x2 |[M:4/4] x8 | [A,C]2 z2 z4 | x8 | %13
 z2 B2 A2 c>d | x8 | x8 | x8 |[M:3/4] x6 |] %18
V:4
 x8 | x8 | x8 | x8 | x8 | x8 | x8 | x8 |[M:3/4] x6 |[M:1/4] x2 |[M:4/4] x8 | A,,6 z2 | x8 | %13
 A,6 z2 | x4[K:bass] x4 | x8 | x8 |[M:3/4] x6 |] %18

